Adwaita++/actions/22/node-add.svg

<svg height="22" viewBox="0 0 22 22" width="22" xmlns="http://www.w3.org/2000/svg">
  <path d="m6.9960938 0v3h-2.9980469v2h2.9980469v3h2v-3h2.9980472v-2h-2.9980472v-3zm-1.9960938 9v3h-4.41210938a.5.5 0 0 0 0 1h4.41210938v3h6v-3h4.492188a.5.5 0 0 0 0-1h-4.492188v-3z" fill="#444" transform="translate(3 3)"/>
</svg>

<svg xmlns="http://www.w3.org/2000/svg" width="22" height="22" viewBox="0 0 22 22">
 <defs>
  <style id="current-color-scheme" type="text/css">
   .ColorScheme-Text { color:#444444; } .ColorScheme-Highlight { color:#4285f4; }
  </style>
 </defs>
 <path style="fill:currentColor" class="ColorScheme-Text" d="M 6.9960938 0 L 6.9960938 3 L 3.9980469 3 L 3.9980469 5 L 6.9960938 5 L 6.9960938 8 L 8.9960938 8 L 8.9960938 5 L 11.994141 5 L 11.994141 3 L 8.9960938 3 L 8.9960938 0 L 6.9960938 0 z M 5 9 L 5 12 L 0.58789062 12 A 0.5 0.5 0 0 0 0.58789062 13 L 5 13 L 5 16 L 11 16 L 11 13 L 15.492188 13 A 0.5 0.5 0 0 0 15.492188 12 L 11 12 L 11 9 L 5 9 z" transform="translate(3 3)"/>
</svg>
